X:1
T:Title
%%score { 1 | 2 }
L:1/8
Q:1/4=172
M:2/2
K:G
V:1 treble nm="Grand Piano"
V:2 treble 
V:1
 B4 c2 c2 | B4 B4 | [FB]2 [FA]2 [F^G]2 [FA]2 | [GB]8 | [Bd]4 [_B^c]2 [Be]2 | [Bd]4 [GB]4 | %6
w: H.~Green * *||||||
 [EB]2 [EA]2 [EG]2 [EA]2 | [^DFB]8 | [DGB]4 [EGc]2 [^DGc]2 | [DGB]4 [DGB]4 | %10
w: ||||
 [CFB]2 [CFA]2 [CF^G]2 [CFA]2 | B8 | d4 c2 B2 | e2 e2 d2 c2 | B4 [FA]4 | [B,DG]8 |] %16
w: ||||||
V:2
 [G,DG]4 [G,EG]2 [G,^DG]2 | [G,DG]4 [G,DG]4 | [D,C]2 [D,C]2 [D,C]2 [D,C]2 | [G,B,]8 | %4
 [G,B,]4 [G,E]2 [G,^C]2 | [G,D]4 [G,D]4 | [C,C]2 [C,C]2 [C,C]2 C,2 | B,,8 | G,4 G,2 G,2 | G,4 G,4 | %10
 D,2 D,2 D,2 D,2 | [G,B,G]8 | [B,G]4 [A,DF]2 [G,DG]2 | [CEG]2 [CEG]2 [B,=FG]2 [DEG]2 | %14
 [DG]4[K:bass] [D,C]4 | [G,,G,]8 |] %16

